src/public/projets/libeo/cira/logo.svg

<?xml version="1.0" encoding="UTF-8"?>
<svg width="136px" height="44px" viewBox="0 0 136 44" version="1.1" xmlns="http://www.w3.org/2000/svg" xmlns:xlink="http://www.w3.org/1999/xlink">
    <title>Group</title>
    <g id="Page-1" stroke="none" stroke-width="1" fill="none" fill-rule="evenodd">
        <g id="thumbnail" transform="translate(-40.000000, -291.000000)" fill="#FFFFFF" fill-rule="nonzero">
            <g id="Group" transform="translate(40.000000, 291.000000)">
                <path d="M25.2325187,2.40518703 L16.2394015,2.40518703 C7.2706277,2.40518703 0,9.67581474 0,18.6445885 L0,27.7605985 C0,36.7293723 7.2706277,44 16.2394015,44 L25.2325187,44 C34.2012925,44 41.4719255,36.7293723 41.4719255,27.7605985 L41.4719255,18.6577556 C41.4754142,14.3485177 39.7660247,10.2145789 36.7201674,7.16625193 C33.6743101,4.11792499 29.5417581,2.40518703 25.2325187,2.40518703 L25.2325187,2.40518703 Z M18.2100748,28.5418454 L23.2442893,28.5418454 C23.9813743,26.4661207 26.1060387,25.2226946 28.2767695,25.5966663 C30.4475004,25.970638 32.0335962,27.8533508 32.0335962,30.0560599 C32.0335962,32.2587689 30.4475004,34.1414817 28.2767695,34.5154534 C26.1060387,34.8894251 23.9813743,33.645999 23.2442893,31.5702743 L18.2276309,31.5702743 C17.5218172,33.5563345 15.5393344,34.7930628 13.4452234,34.5536743 C11.3511123,34.3142858 9.69888129,32.6620547 9.45949276,30.5679437 C9.22010424,28.4738326 10.4568326,26.4913499 12.4428928,25.7855362 L12.4428928,20.645985 C10.4550899,19.9397124 9.21803357,17.9546779 9.45969778,15.8590206 C9.70136198,13.7633633 11.3577565,12.1119919 13.4541381,11.8766938 C15.5505198,11.6413956 17.5317879,12.8844752 18.23202,14.874414 L23.2311222,14.874414 C23.9502307,12.7898339 26.0660616,11.5260393 28.2424086,11.8811519 C30.4187557,12.2362644 32.0231153,14.107079 32.0424631,16.3121241 C32.0614639,18.5171691 30.4898803,20.4156007 28.3200378,20.8085062 C26.1501953,21.2014117 24.012707,19.9746025 23.2574564,17.9028429 L18.2232419,17.9028429 C17.7587198,19.1794851 16.7501771,20.1832022 15.4713217,20.641596 L15.4713217,25.7855362 C16.756262,26.2455524 17.7676147,27.2569051 18.2276309,28.5418454 L18.2100748,28.5418454 Z" id="Shape"></path>
                <rect id="Rectangle" x="79.3843392" y="11.1305736" width="7.4394015" height="26.2595511"></rect>
                <path d="M101.711322,10.7575062 C98.6390025,10.7575062 95.5666833,11.6616459 94.2499751,12.95202 C93.0210474,14.1721696 92.2573566,15.5108229 92.2266334,18.4207481 L92.165187,37.3462344 L99.7845387,37.3462344 L99.7845387,20.1412469 C99.7602651,19.2120157 100.13584,18.3170289 100.81596,17.6833915 C101.490093,17.1469206 102.306195,16.8189542 103.16409,16.7397506 C103.38428,16.7169931 103.605471,16.7052743 103.826833,16.7046384 C105.560499,16.7046384 107.250274,17.5824439 108.106135,17.9642893 L108.106135,12.3990025 C106.168515,11.3592503 104.01089,10.7965226 101.812269,10.7575062 L101.711322,10.7575062 Z" id="Path"></path>
                <ellipse id="Oval" cx="83.1018454" cy="3.9676808" rx="3.86234414" ry="3.9676808"></ellipse>
                <path d="M60.5773566,11.8020948 C58.8920639,12.389805 57.3478902,13.3225876 56.0434913,14.5408479 C54.8097665,15.7294866 53.8484311,17.1714897 53.2257357,18.7674813 C52.5566133,20.5243147 52.2245679,22.3915116 52.2469825,24.2713217 C52.2241742,26.1497369 52.5562417,28.0155689 53.2257357,29.7707731 C53.8484311,31.3667646 54.8097665,32.8087678 56.0434913,33.9974065 C57.3474208,35.2162876 58.8917329,36.1491537 60.5773566,36.7361596 C62.416887,37.4076856 64.3646587,37.7335542 66.3225935,37.6973566 C70.8915711,37.6973566 73.7356608,35.9417456 74.1043392,35.7179052 L74.1043392,29.9463342 C73.8892768,30.1175062 71.9098254,31.7019451 67.9597007,31.7019451 C65.4711222,31.7019451 63.2195511,31.0260349 61.9511222,29.6961596 C60.6826933,28.3662843 60.0506733,26.5360599 60.0506733,24.2537656 C60.0506733,21.9714713 60.7221945,20.1412469 61.9642893,18.8245387 C63.206384,17.5078304 65.4755112,16.8187531 67.9728678,16.8187531 C70.1006262,16.8101332 72.2022581,17.2875039 74.1175062,18.2144638 L74.1175062,12.5482294 C71.8201999,11.3804376 69.2770938,10.778519 66.7000499,10.7926185 C64.6160947,10.772028 62.5444013,11.1135975 60.5773566,11.8020948 Z" id="Path"></path>
                <path d="M127.874314,37.4032918 L135.225935,37.4032918 L135.151322,22.4805985 C135.151322,18.6489776 134.225237,15.5722693 131.6401,13.5664838 C129.401696,11.8108728 126.575162,10.7750623 122.962993,10.7750623 C119.508828,10.7750623 116.607681,11.038404 113.013067,12.5306733 L113.039401,18.2100748 C115.940549,16.7134165 119.126983,16.3886284 121.352219,16.3886284 C128.177157,16.5115212 127.874314,21.5106234 127.874314,21.5106234 L122.366085,21.5106234 C118.367681,21.5106234 115.383142,22.2216459 113.49586,23.6305237 C112.60397,24.277086 111.884959,25.1332659 111.402294,26.1234913 C110.924333,27.1756485 110.68741,28.3212763 110.708828,29.4767082 C110.682925,30.9545817 111.068938,32.4104897 111.823641,33.6813965 C112.625423,34.957406 113.779333,35.9741276 115.146135,36.6088778 C116.795616,37.3690613 118.597278,37.7414049 120.412968,37.6973566 C123.016511,37.7508924 125.503899,36.620995 127.176459,34.6250374 L127.874314,33.8350125 L127.874314,37.4032918 Z M127.84798,29.5030424 C127.47758,30.2774743 126.906155,30.9383259 126.193317,31.4166584 C125.26812,32.0123724 124.186025,32.3180488 123.085885,32.2944638 C122.06455,32.3420657 121.058642,32.0316001 120.241796,31.4166584 C119.523386,30.8376155 119.117362,29.9557314 119.144539,29.0334165 C119.144539,27.5543142 119.934564,25.7899252 123.682793,25.7899252 L127.874314,25.7899252 L127.874314,26.1937157 L127.874314,29.2923691 L127.874314,29.3889277 L127.84798,29.5030424 Z" id="Shape"></path>
            </g>
        </g>
    </g>
</svg>

<svg width="136" height="44" xmlns="http://www.w3.org/2000/svg"><g fill="#FFF"><path d="M25.233 2.405h-8.994C7.271 2.405 0 9.675 0 18.645v9.116C0 36.729 7.27 44 16.24 44h8.993c8.968 0 16.239-7.27 16.239-16.24v-9.102a16.24 16.24 0 0 0-16.24-16.253zM18.21 28.542h5.034a4.525 4.525 0 1 1 0 3.028h-5.016a4.53 4.53 0 1 1-5.785-5.784v-5.14a4.53 4.53 0 1 1 5.789-5.772h5a4.53 4.53 0 1 1 .025 3.029h-5.034a4.569 4.569 0 0 1-2.752 2.739v5.144a4.56 4.56 0 0 1 2.757 2.756h-.018zm61.174-17.411h7.439v26.26h-7.439zm22.327-.373c-3.072 0-6.144.904-7.461 2.194-1.229 1.22-1.993 2.559-2.023 5.469l-.062 18.925h7.62V20.141a3.243 3.243 0 0 1 1.031-2.458 4.424 4.424 0 0 1 2.348-.943c.22-.023.441-.035.663-.035 1.733 0 3.423.877 4.28 1.26v-5.566a13.83 13.83 0 0 0-6.295-1.641h-.1z"/><ellipse cx="83.102" cy="3.968" rx="3.862" ry="3.968"/><path d="M60.577 11.802a12.834 12.834 0 0 0-4.534 2.739 11.85 11.85 0 0 0-2.817 4.226 14.962 14.962 0 0 0-.979 5.504 14.93 14.93 0 0 0 .979 5.5 11.85 11.85 0 0 0 2.817 4.226 12.807 12.807 0 0 0 4.534 2.74c1.84.67 3.788.997 5.746.96 4.569 0 7.413-1.755 7.781-1.98v-5.77c-.215.17-2.194 1.755-6.144 1.755-2.489 0-4.74-.676-6.009-2.006-1.268-1.33-1.9-3.16-1.9-5.442 0-2.283.671-4.113 1.913-5.43 1.242-1.316 3.512-2.005 6.009-2.005 2.128-.009 4.23.469 6.145 1.395v-5.666a16.174 16.174 0 0 0-7.418-1.755 17.995 17.995 0 0 0-6.123 1.01zm67.297 25.601h7.352l-.075-14.922c0-3.832-.926-6.909-3.51-8.915-2.24-1.755-5.066-2.79-8.678-2.79-3.454 0-6.355.262-9.95 1.755l.026 5.68c2.902-1.498 6.088-1.822 8.313-1.822 6.825.123 6.522 5.122 6.522 5.122h-5.508c-3.998 0-6.983.71-8.87 2.12a6.71 6.71 0 0 0-2.094 2.492 7.76 7.76 0 0 0-.693 3.354 7.962 7.962 0 0 0 1.115 4.204 7.808 7.808 0 0 0 3.322 2.928c1.65.76 3.451 1.132 5.267 1.088a8.594 8.594 0 0 0 6.763-3.072l.698-.79v3.568zm-.026-7.9a4.797 4.797 0 0 1-1.655 1.914 5.521 5.521 0 0 1-3.107.877 4.389 4.389 0 0 1-2.844-.877 2.95 2.95 0 0 1-1.097-2.384c0-1.479.79-3.243 4.538-3.243h4.191v3.599l-.026.114z"/></g></svg>
